X:192
T:Blue Imp Blues
C:Mike Marshal
N:Mandolin World News
L:1/8
Q:1/4=220
M:4/4
K:C
GE DE G4 |: [gB]"G"[gd] [gd][gB] [g2d2] [gd][gB] | dB de dc BG | "Am"G[AA] [AA][AA] [A2A2] AB | 
cB cd ed cB | "G"[gB][gd] [gd][gB] [g2d2] [gd][gB] | dB de dc BG | "Am"GA AB AG "Em"E2 | 
E8 :| z2 GE DE G2 | "Eb"^D3"D"=D3 "G"G2 | z2 GE DE G2 | "Eb"^D=D ^DF G_B3 | _BA Bc d^d3 | 
{^c}"G"de gb ge dg | ed BA dB AG | "Eb"^D=D ^D^F G_B3 | _BA Bc d^d3 | "G"_B=B G2 _B=B G2 | 
BA Bd BA GA |: "Bm"BA Bd "Am"^cB A2 |3 A2 AB AG ^FG :| ^D3=D3 "G"G2 | z8 | z2 GE DE G2 | 
"Eb"^D3"D"=D3 "G"G2 | G2 GE DE G2 |: "Eb"^D3"D"=D3 ^D2 |3 "D"^D=D2"Eb"^D3 "D"=D2 :| G8 | 
[g8B8D8G,8] | 
 

